X:15682
T:Soldier's Joy
R:hornpipe
Z:id:hn-hornpipe-45
M:C|
K:D
dB|AFDF AFDF|A2d2 d2cB|AFDF AFDF|G2E2 E2FG|
AFDF AFDF|A2d2 d3e|fafd egec|d2dc d2:|
|:de|f2fe fagf|edcd egfe|f2fe fagf|edcB A2de|
f2fd fagf|edcd egfe|fafd egec|d2dc d2:|
